svg/vibrate_off.svg

<svg xmlns="http://www.w3.org/2000/svg" viewBox="0 0 24 24"><path d="M8.2 5 6.55 3.35c.26-.23.6-.35.95-.35h9A1.5 1.5 0 0 1 18 4.5v10.3l-2-2V5zM0 15h2V9H0zm21 2V7h-2v8.8l1.2 1.2zM3 17h2V7H3zm15 .35 4.11 4.11-1.27 1.27L18 19.85c-.17.69-.79 1.15-1.5 1.15h-9A1.5 1.5 0 0 1 6 19.5V7.89L1.11 3l1.28-1.27 3.7 3.71L8 7.34l8 8 2 2zm-2 .54-8-8V19h8zM22 9v6h2V9z"/></svg>

<?xml version="1.0" encoding="UTF-8"?><!DOCTYPE svg PUBLIC "-//W3C//DTD SVG 1.1//EN" "http://www.w3.org/Graphics/SVG/1.1/DTD/svg11.dtd"><svg xmlns="http://www.w3.org/2000/svg" xmlns:xlink="http://www.w3.org/1999/xlink" version="1.1" id="mdi-vibrate-off" width="24" height="24" viewBox="0 0 24 24"><path d="M8.2,5L6.55,3.35C6.81,3.12 7.15,3 7.5,3H16.5A1.5,1.5 0 0,1 18,4.5V14.8L16,12.8V5H8.2M0,15H2V9H0V15M21,17V7H19V15.8L20.2,17H21M3,17H5V7H3V17M18,17.35L22.11,21.46L20.84,22.73L18,19.85C17.83,20.54 17.21,21 16.5,21H7.5A1.5,1.5 0 0,1 6,19.5V7.89L1.11,3L2.39,1.73L6.09,5.44L8,7.34L16,15.34L18,17.34V17.35M16,17.89L8,9.89V19H16V17.89M22,9V15H24V9H22Z" /></svg>
